build/category/ApplicationAdministratorOutline.svg

<svg xmlns="http://www.w3.org/2000/svg" fill="none" viewBox="0 0 24 24" focusable="false"><path d="M0 0H24V24H0z"/><path fill="#74767B" fill-rule="evenodd" d="M19.1529 12.0072C19.5577 12.1289 20 11.846 20 11.4233L20 7C20 5.34315 18.6569 4 17 4L7 4C5.34314 4 4 5.34315 4 7L4 17C4 18.6569 5.34314 20 7 20L11.4233 20C11.846 20 12.1289 19.5577 12.0072 19.1529C11.9294 18.894 11.6979 18.7 11.4276 18.7L7 18.7C6.06112 18.7 5.3 17.9389 5.3 17L5.3 7C5.3 6.06112 6.06112 5.3 7 5.3L17 5.3C17.9389 5.3 18.7 6.06112 18.7 7L18.7 11.4276C18.7 11.6979 18.894 11.9294 19.1529 12.0072ZM16.9639 13C16.4971 13 16.1017 13.3267 16.0375 13.7656C16.0276 13.8332 16.0097 13.8974 15.985 13.9577L15.985 7.6059C15.985 7.56102 15.9804 7.51721 15.9718 7.4749C15.9111 7.1787 15.6491 6.9559 15.335 6.9559L8.66729 6.9559L8.66504 6.95589C8.30605 6.95589 8.01504 7.24691 8.01504 7.60589L8.01504 16.3941C8.01504 16.7531 8.30605 17.0441 8.66504 17.0441C9.02402 17.0441 9.31504 16.7531 9.31504 16.3941L9.31504 8.2559L14.685 8.2559L14.685 14.389C14.2892 14.3006 13.8703 14.4661 13.6614 14.8094L13.1571 15.6384C12.9265 16.0174 13.0215 16.4994 13.3808 16.7738C13.8455 17.1286 13.8379 17.8128 13.3608 18.1653C12.9924 18.4374 12.8919 18.9257 13.1254 19.3094L13.6297 20.1384C13.8603 20.5174 14.3476 20.6804 14.7777 20.5222C15.3338 20.3177 15.9544 20.6661 16.0375 21.2344C16.1017 21.6733 16.4971 22 16.9639 22L17.9726 22C18.4338 22 18.8262 21.681 18.8969 21.2484C18.993 20.6603 19.6375 20.3071 20.2223 20.5222C20.6524 20.6804 21.1397 20.5174 21.3703 20.1384L21.8746 19.3094C22.1081 18.9257 22.0076 18.4374 21.6392 18.1653C21.1621 17.8128 21.1545 17.1286 21.6192 16.7738C21.9785 16.4994 22.0735 16.0174 21.8429 15.6384L21.3386 14.8094C21.1051 14.4257 20.6093 14.2642 20.1767 14.4308C19.6165 14.6467 18.9883 14.3109 18.8969 13.7516C18.8262 13.3191 18.4338 13 17.9726 13L16.9639 13ZM17.4719 14.3C17.3366 14.3 17.219 14.3888 17.1645 14.5127C16.7575 15.4384 15.7412 15.9219 14.7793 15.7598C14.6864 15.7441 14.5911 15.7826 14.5421 15.863C14.492 15.9454 14.5035 16.0505 14.5634 16.1262C15.1921 16.9204 15.1717 18.0472 14.5368 18.8268C14.4756 18.9019 14.4634 19.0075 14.5137 19.0903C14.5619 19.1694 14.6553 19.2077 14.7468 19.1931C15.733 19.0359 16.762 19.5483 17.1685 20.4935C17.2203 20.6139 17.3342 20.7 17.4653 20.7L17.4779 20.7C17.6078 20.7 17.7211 20.6154 17.7733 20.4964C18.1959 19.5331 19.2504 19.0264 20.2535 19.192C20.3449 19.2071 20.4384 19.1689 20.4866 19.0898C20.5368 19.0073 20.5245 18.902 20.4635 18.8272C19.8282 18.0475 19.8078 16.9203 20.4369 16.1259C20.4966 16.0504 20.5081 15.9456 20.4581 15.8634C20.4091 15.7829 20.3137 15.7445 20.2209 15.7606C19.245 15.9291 18.2013 15.4499 17.7777 14.5093C17.7227 14.3871 17.6059 14.3 17.4719 14.3ZM17.5 19C18.3284 19 19 18.3284 19 17.5C19 16.6716 18.3284 16 17.5 16C16.6716 16 16 16.6716 16 17.5C16 18.3284 16.6716 19 17.5 19Z"/></svg>

<svg xmlns="http://www.w3.org/2000/svg" fill="none" viewBox="0 0 24 24" focusable="false"><path fill="#74767B" fill-rule="evenodd" d="M19.15 12c.4.12.85-.16.85-.58V7c0-1.66-1.35-3-3-3H7C5.34 4 4 5.34 4 7v10c0 1.65 1.34 3 3 3h4.42c.42 0 .7-.45.58-.85a.62.62 0 0 0-.58-.45H7c-.94 0-1.7-.77-1.7-1.7V7c0-.94.76-1.71 1.7-1.71h10c.93 0 1.7.77 1.7 1.71v4.42c0 .27.19.5.45.58m-2.19 1c-.47 0-.86.32-.93.76-.01.07-.03.13-.05.19V7.6c0-.04 0-.09-.01-.13a.654.654 0 0 0-.64-.52H8.66c-.36 0-.65.29-.65.65v8.79c0 .36.29.65.65.65s.65-.29.65-.65V8.25h5.37v6.13c-.4-.08-.81.08-1.02.42l-.51.83c-.23.38-.13.86.23 1.14.46.35.45 1.04-.02 1.39-.37.27-.47.76-.24 1.14l.5.83c.24.38.72.55 1.15.39.56-.21 1.18.14 1.26.71.07.44.46.77.93.77h1.01c.46 0 .85-.32.92-.76.1-.58.74-.94 1.33-.72.43.16.91-.01 1.15-.39l.5-.83c.23-.38.13-.87-.24-1.14a.867.867 0 0 1-.02-1.39c.36-.28.46-.76.23-1.14l-.51-.83c-.23-.38-.73-.54-1.16-.37-.56.21-1.19-.12-1.28-.68-.07-.44-.46-.75-.92-.75zm.51 1.3c-.14 0-.26.08-.31.21-.41.92-1.42 1.41-2.39 1.24a.24.24 0 0 0-.23.11c-.05.08-.04.19.02.26.63.8.61 1.92-.03 2.7-.06.08-.07.18-.02.27.05.07.14.11.23.1.99-.16 2.02.35 2.42 1.3.06.12.17.21.3.21h.01c.13 0 .25-.09.3-.21.42-.96 1.48-1.47 2.48-1.3.09.01.18-.03.23-.11s.04-.18-.02-.26c-.64-.78-.66-1.9-.03-2.7.06-.07.07-.18.02-.26a.215.215 0 0 0-.23-.1c-.98.16-2.02-.32-2.45-1.26a.33.33 0 0 0-.3-.2m.03 4.7c.82 0 1.5-.68 1.5-1.5 0-.83-.68-1.5-1.5-1.5-.83 0-1.5.67-1.5 1.5 0 .82.67 1.5 1.5 1.5"/></svg>
